img/svg/logo-circle.svg

<svg width="100" height="100" viewBox="0 0 100 100" fill="none" xmlns="http://www.w3.org/2000/svg">
<circle cx="50" cy="50" r="50" fill="#CF2D1E"/>
<path d="M58.8235 25C67.7575 25 75 32.2425 75 41.1765C75 50.1105 67.7575 57.3529 58.8235 57.3529C58.0113 57.3529 57.3529 58.0113 57.3529 58.8235C57.3529 59.5455 57.8732 60.1459 58.5592 60.2704L58.8235 60.2941H75V75H58.8235C49.8895 75 42.6471 67.7575 42.6471 58.8235C42.6471 49.8895 49.8895 42.6471 58.8235 42.6471C59.6357 42.6471 60.2941 41.9887 60.2941 41.1765C60.2941 40.4545 59.7739 39.8541 59.0879 39.7296L58.8235 39.7059H41.1765C40.4545 39.7059 39.8541 40.2261 39.7296 40.9121L39.7059 41.1765V75H25V41.1765C25 32.4604 31.8935 25.3543 40.5259 25.0128L41.1765 25H58.8235Z" fill="white"/>
</svg>

<svg width="100" height="100" fill="none" xmlns="http://www.w3.org/2000/svg"><circle cx="50" cy="50" r="50" fill="#CF2D1E"/><path d="M58.824 25C67.757 25 75 32.242 75 41.176c0 8.934-7.243 16.177-16.176 16.177a1.47 1.47 0 00-.265 2.917l.265.024H75V75H58.824c-8.934 0-16.177-7.243-16.177-16.176 0-8.934 7.242-16.177 16.177-16.177a1.47 1.47 0 00.264-2.917l-.264-.024H41.175c-.721 0-1.322.52-1.446 1.206l-.024.264V75H25V41.176c0-8.716 6.893-15.822 15.526-16.163l.65-.013h17.648z" fill="#fff"/></svg>
